gama.ui.shared/icons_svg/dark/gaml/_list.svg

<svg height="18" viewBox="-165.587 -2834.086 24 18" width="24" xmlns="http://www.w3.org/2000/svg"><path d="m-163.719-2828.353h.46667c.26133 0 .46667.2054.46667.4668 0 .2612-.20534.4666-.46667.4666h-1.86667c-.26133 0-.46666-.2054-.46666-.4666 0-.2614.20533-.4668.46666-.4668h.46667v-2.8h-.46667c-.26133 0-.46666-.2052-.46666-.4666s.20533-.4666.46666-.4666h.93334c.26133 0 .46666.2052.46666.4666zm-.93333 2.8v.4668c0 .2612-.20533.4666-.46667.4666-.26133 0-.46666-.2054-.46666-.4666v-.9334c0-.2614.20533-.4666.46666-.4666h1.86667c.26133 0 .46667.2052.46667.4666v.9334c0 .1212-.04667.2426-.14.3266l-1.07334 1.0734h.73734c.26133 0 .46666.2052.46666.4666s-.20533.4666-.46666.4666h-1.85734c-.42 0-.62533-.504-.32666-.7932l1.72666-1.7268v-.2706h-.93333zm-.46667 4.6668c-.26133 0-.46666-.2054-.46666-.4668 0-.2612.20533-.4666.46666-.4666h1.86667c.26133 0 .46667.2054.46667.4666v.9334c0 .1214-.04667.2426-.14.3266l-.14.14.14.14c.084.084.14.2054.14.3268v.9332c0 .2614-.20534.4668-.46667.4668h-1.86667c-.26133 0-.46666-.2054-.46666-.4668 0-.2612.20533-.4666.46666-.4666h1.4v-.2706l-.32666-.3268c-.18667-.1866-.18667-.476 0-.6626l.32666-.3266v-.2708h-1.4zm4.66667.9332c-.26133 0-.46667-.2052-.46667-.4666s.20534-.4666.46667-.4666h11.2c.26133 0 .46667.2052.46667.4666s-.20534.4666-.46667.4666zm0-4.6666c-.26133 0-.46667-.2054-.46667-.4666 0-.2614.20534-.4668.46667-.4668h11.2c.26133 0 .46667.2054.46667.4668 0 .2612-.20534.4666-.46667.4666zm0-4.6666c-.26133 0-.46667-.2054-.46667-.4668 0-.2612.20534-.4666.46667-.4666h11.2c.26133 0 .46667.2054.46667.4666 0 .2614-.20534.4668-.46667.4668z" fill="#999"/></svg>

<?xml version="1.0" encoding="UTF-8" standalone="no"?>
<!DOCTYPE svg PUBLIC "-//W3C//DTD SVG 1.1//EN" "http://www.w3.org/Graphics/SVG/1.1/DTD/svg11.dtd">
<svg xmlns:dc="http://purl.org/dc/elements/1.1/" xmlns:xl="http://www.w3.org/1999/xlink" version="1.1" xmlns="http://www.w3.org/2000/svg" viewBox="-165.5871 -2834.0862 24 18" width="24" height="18">
  <defs/>
  <g id="SOURCES" stroke-dasharray="none" stroke="none" stroke-opacity="1" fill="none" fill-opacity="1">
    <title>SOURCES</title>
    <g id="SOURCES_New">
      <title>New</title>
      <g id="Group_10492">
        <g id="Graphic_10173"/>
        <g id="Group_10068">
          <title>list-number</title>
          <g id="Graphic_10069">
            <path d="M -163.719 -2828.353 L -163.25233 -2828.353 C -162.991 -2828.353 -162.78566 -2828.1476 -162.78566 -2827.8862 C -162.78566 -2827.625 -162.991 -2827.4196 -163.25233 -2827.4196 L -165.119 -2827.4196 C -165.38033 -2827.4196 -165.58566 -2827.625 -165.58566 -2827.8862 C -165.58566 -2828.1476 -165.38033 -2828.353 -165.119 -2828.353 L -164.65233 -2828.353 L -164.65233 -2831.153 L -165.119 -2831.153 C -165.38033 -2831.153 -165.58566 -2831.3582 -165.58566 -2831.6196 C -165.58566 -2831.881 -165.38033 -2832.0862 -165.119 -2832.0862 L -164.18566 -2832.0862 C -163.92433 -2832.0862 -163.719 -2831.881 -163.719 -2831.6196 Z M -164.65233 -2825.553 L -164.65233 -2825.0862 C -164.65233 -2824.825 -164.85766 -2824.6196 -165.119 -2824.6196 C -165.38033 -2824.6196 -165.58566 -2824.825 -165.58566 -2825.0862 L -165.58566 -2826.0196 C -165.58566 -2826.281 -165.38033 -2826.4862 -165.119 -2826.4862 L -163.25233 -2826.4862 C -162.991 -2826.4862 -162.78566 -2826.281 -162.78566 -2826.0196 L -162.78566 -2825.0862 C -162.78566 -2824.965 -162.83233 -2824.8436 -162.92566 -2824.7596 L -163.999 -2823.6862 L -163.26166 -2823.6862 C -163.00033 -2823.6862 -162.795 -2823.481 -162.795 -2823.2196 C -162.795 -2822.9582 -163.00033 -2822.753 -163.26166 -2822.753 L -165.119 -2822.753 C -165.539 -2822.753 -165.74433 -2823.257 -165.44566 -2823.5462 L -163.719 -2825.273 L -163.719 -2825.5436 L -164.65233 -2825.5436 Z M -165.119 -2820.8862 C -165.38033 -2820.8862 -165.58566 -2821.0916 -165.58566 -2821.353 C -165.58566 -2821.6142 -165.38033 -2821.8196 -165.119 -2821.8196 L -163.25233 -2821.8196 C -162.991 -2821.8196 -162.78566 -2821.6142 -162.78566 -2821.353 L -162.78566 -2820.4196 C -162.78566 -2820.2982 -162.83233 -2820.177 -162.92566 -2820.093 L -163.06566 -2819.953 L -162.92566 -2819.813 C -162.84166 -2819.729 -162.78566 -2819.6076 -162.78566 -2819.4862 L -162.78566 -2818.553 C -162.78566 -2818.2916 -162.991 -2818.0862 -163.25233 -2818.0862 L -165.119 -2818.0862 C -165.38033 -2818.0862 -165.58566 -2818.2916 -165.58566 -2818.553 C -165.58566 -2818.8142 -165.38033 -2819.0196 -165.119 -2819.0196 L -163.719 -2819.0196 L -163.719 -2819.2902 L -164.04566 -2819.617 C -164.23233 -2819.8036 -164.23233 -2820.093 -164.04566 -2820.2796 L -163.719 -2820.6062 L -163.719 -2820.877 L -165.119 -2820.877 Z M -160.45233 -2819.953 C -160.71366 -2819.953 -160.919 -2820.1582 -160.919 -2820.4196 C -160.919 -2820.681 -160.71366 -2820.8862 -160.45233 -2820.8862 L -149.25233 -2820.8862 C -148.991 -2820.8862 -148.78566 -2820.681 -148.78566 -2820.4196 C -148.78566 -2820.1582 -148.991 -2819.953 -149.25233 -2819.953 Z M -160.45233 -2824.6196 C -160.71366 -2824.6196 -160.919 -2824.825 -160.919 -2825.0862 C -160.919 -2825.3476 -160.71366 -2825.553 -160.45233 -2825.553 L -149.25233 -2825.553 C -148.991 -2825.553 -148.78566 -2825.3476 -148.78566 -2825.0862 C -148.78566 -2824.825 -148.991 -2824.6196 -149.25233 -2824.6196 Z M -160.45233 -2829.2862 C -160.71366 -2829.2862 -160.919 -2829.4916 -160.919 -2829.753 C -160.919 -2830.0142 -160.71366 -2830.2196 -160.45233 -2830.2196 L -149.25233 -2830.2196 C -148.991 -2830.2196 -148.78566 -2830.0142 -148.78566 -2829.753 C -148.78566 -2829.4916 -148.991 -2829.2862 -149.25233 -2829.2862 Z" fill="#999"/>
          </g>
        </g>
      </g>
    </g>
  </g>
</svg>
